packages/netlify-cms-ui-default/src/Icon/images/bold.svg

<svg height="20" viewBox="0 0 22 20" width="22" xmlns="http://www.w3.org/2000/svg"><path d="m13.2 15.8190158c.812093-.5774258 1.3813953-1.5254384 1.3813953-2.4045046 0-1.9477349-1.4651162-3.44731836-3.3488372-3.44731836h-5.2325581v12.06561436h5.8939535c1.7497674 0 3.1060465-1.4651103 3.1060465-3.2663342 0-1.309981-.72-2.4303595-1.8-2.9474572zm-5.09208984-3.697249h2.84948734c.7883581 0 1.4247436.5774259 1.4247436 1.2927444 0 .7153186-.6363855 1.2927444-1.4247436 1.2927444h-2.84948734zm3.32440184 7.7564664h-3.32440184v-2.5854888h3.32440184c.7883582 0 1.4247437.5774258 1.4247437 1.2927444 0 .7153185-.6363855 1.2927444-1.4247437 1.2927444z" fill="#7a8291" transform="translate(0 -6)"/></svg>

<svg xmlns="http://www.w3.org/2000/svg" width="22" height="20" viewBox="0 0 22 20"><path fill="#7A8291" d="M13.2,15.8190158 C14.012093,15.24159 14.5813953,14.2935774 14.5813953,13.4145112 C14.5813953,11.4667763 13.1162791,9.96719284 11.2325581,9.96719284 L6,9.96719284 L6,22.0328072 L11.8939535,22.0328072 C13.6437209,22.0328072 15,20.5676969 15,18.766473 C15,17.456492 14.28,16.3361135 13.2,15.8190158 Z M8.10791016,12.1217668 L10.9573975,12.1217668 C11.7457556,12.1217668 12.3821411,12.6991927 12.3821411,13.4145112 C12.3821411,14.1298298 11.7457556,14.7072556 10.9573975,14.7072556 L8.10791016,14.7072556 L8.10791016,12.1217668 Z M11.432312,19.8782332 L8.10791016,19.8782332 L8.10791016,17.2927444 L11.432312,17.2927444 C12.2206702,17.2927444 12.8570557,17.8701702 12.8570557,18.5854888 C12.8570557,19.3008073 12.2206702,19.8782332 11.432312,19.8782332 Z" transform="translate(0 -6)"/></svg>
